!! "All Gold [or Abundant Gold]", Item 13 from Laurence Picken et al
!! "Music From the Tang Court" Vol. 4, Cambridge University Press
!! (Cambridge) 1987; pp. 41-42
!! NOTE: This file contains an amalgamation of four coordinated ms sources.
!! SGYR	JCYR	SSSTF	KF/HSFRK (manuscripts)
!! Lute	Zither	Mouth	Mouth
!!		Organ	Organ
**kern	**kern	**kern	**kern
*M4/2	*M4/2	*M4/2	*M4/2
=1	=1	=1	=1
4D	4D 4d	4dd	4dd
4d	4d	4dd	4dd
4A	4A 4a	32b	4a
.	.	32a	.
.	.	8.a	.
4A	4a	4a	4a
{16G#	{4D 16g#	32gg	4gg
.	.	32ff#	.
16F#	16f#	8.gg	.
8G#}	8g#}	.	.
8G#	4D 8g#	4ff#	4ff#
{16G#	{16g#	.	.
16F#}	16f#}	.	.
{16G#	{4D 16g#	4gg	4gg
16F#	16f#	.	.
8G#}	8g#}	.	.
8A	4A 8a	4a	4a
8A	8a	.	.
=2	=2	=2	=2
4D	4d 4dd	4dd	4dd
8d	8dd	4ee	4ee
8E	8ee	.	.
{8c#	{4B 8cc#	8ccc	4b
8B}	8b}	8b	.
8A	4A 8a	4a	4a
8A	8a	.	.
{16c#	{4B 16cc#	4ccc	4ccc
16B	16b	.	.
8c#}	8cc#}	.	.
8AA	4A 8a	4a	4a
8A	8a	.	.
2A	2A 2a	2a	2a
=3	=3	=3	=3
{16c#	{4B 16cc#	4ccc	4ccc
16B	16b	.	.
8c#}	8cc#}	.	.
8c#	4B 8cc#	4b	4b
{16c#	{16cc#	.	.
16B}	16b}	.	.
{16c#	{4B 16cc#	4ccc	4ccc
16B	16b	.	.
8c#}	8cc#}	.	.
8D	4d 8dd	4dd	4dd
8d	8dd	.	.
{8c#	{4B 8cc#	8ccc	4a
8B}	8b}	8b	.
8A	4A 8a	4a	4a
8A	8a	.	.
{16c#	{4B 16cc#	4ccc	4ccc
16B	16b	.	.
8c#}	8cc#}	.	.
8AA	4A 8a	4a	4a
8A	8a	.	.
=4	=4	=4	=4
{16G#	{4D 16g#	4gg	4gg
16F#	16f#	.	.
16G#	8g#}	.	.
16F#	.	.	.
8G#}	4D 8g#	4b	4b
8B	8b	.	.
4A	4A 4a	4a	4a
8A	8a	4ff#	4ff#
8F#	8f#	.	.
{16G#	{4D 16g#	4gg	4gg
16F#	16f#	.	.
8G#}	8g#}	.	.
8G#	4D 8g#	4ff#	4ee
{16G#	{16g#	.	.
16F#}	16f#}	.	.
4E	4D 4e	4ee	4ee
4E	8e	4ff#	4ff#
.	8f#	.	.
=5	=5	=5	=5
4D	4d 4dd	4dd	4dd
8d	8dd	4b	4b
{16B	8b	.	.
16A}	.	.	.
{16F#	4f# 4ff#	4ff#	4ff#
16E	.	.	.
8F#}	.	.	.
8A	4a 8aa	4a	4a
8A	8aa	.	.
{16G#	{4f# 16gg#	4gg	4gg
16F#	16ff#	.	.
8G#}	8gg#}	.	.
8G#	4f# 16gg#	4ff#	4ff#
{16G#	{16gg#	.	.
16F#}	16ff#}	.	.
4E	4e 4ee	4ee	4ee
4E	4ee	4ee	4ee
=6	=6	=6	=6
4c#	{4B 16cc#	4ccc	4ccc
.	16b	.	.
.	8cc#}	.	.
4B	4B 8cc#	4b	4b
.	{16cc#	.	.
.	16b}	.	.
{16c#	{4B 16cc#	4ccc	4ccc
16B	16b	.	.
8c#}	8cc#}	.	.
4d	4d 8dd	4dd	4dd
.	8dd	.	.
{8F#	{4e 8ff#	8ff#	4ee
8E}	8ee}	8ee	.
8D	4d 8dd	4dd	4dd
8d	8dd	.	.
2d	2d 2dd	2dd	2dd
=7	=7	=7	=7
{16c#	{4B 16cc#	4ccc	4ccc
16B	16b	.	.
8c#}	8cc#}	.	.
8E	8cc#	4ee	4ee
8E	8ee	.	.
4D	4d 4dd	4dd	4dd
8d	8dd	4ccc	4ccc
{32c#	{32cc#	.	.
32B	32b	.	.
16c#}	16cc#}	.	.
4E	4e 4ee	4ee	4ee
{16F#	4f# 4ff#	4ff#	4ff#
16E	.	.	.
8F#}	.	.	.
8A	4a 8aa	4a	4a
8A	8aa	.	.
=8	=8	=8	=8
4D	4d 4dd	32ff#	4ff#
.	.	[32dd	.
.	.	8.dd]	.
8d	8dd	32b	4ccc
.	.	[32ccc	.
.	.	8.ccc]	.
{32c#	{32dd	.	.
32B	32cc#	.	.
16c#}	16dd}	.	.
{8c#	{4B 8cc#	8ccc	4b
8B}	8b}	8b	.
8A	4A 8a	4a	4a
8A	8a	.	.
{16c#	{4B 16cc#	4ccc	4ccc
16B	16b	.	.
8c#}	8cc#}	.	.
8AA	4A 8a	4a	4a
8A	8a	.	.
2A	2A 2a	2a	2a
=9	=9	=9	=9
4D	4d 4dd	4dd	4dd
8d	8dd	4ee	4ee
8E	8ee	.	.
{16F#	4f# 4ff#	4ff#	4ff#
16E	.	.	.
8F#}	.	.	.
8D	4d 8dd	4dd	4dd
8d	8dd	.	.
{8c#	{4B 8cc#	8ccc	4b
8B}	8b}	8b	.
8A	4A 8a	4a	4a
8A	8a	.	.
4D	4d 4dd	4dd	4d
8A	8a	4a	4a
8A	8a	.	.
=10	=10	=10	=10
{8c#	4B 4b	4b	4b
8B}	.	.	.
{16B	8b	32a	.
.	.	[32ff#	.
16A}	.	8.ff#]	.
{16F#	8f#	.	.
32E	.	.	.
32F#}	.	.	.
4A	4A 4a	4a	4a
4d	4d 8dd	4dd	4dd
.	8dd	.	.
{8F#	{4e 8ff#	8ff#	4ee
8E}	8ee}	8ee	.
8D	4d 8dd	4dd	4dd
8d	8dd	.	.
2d	2d 2dd	2dd	2dd
====	====	====	====
*-	*-	*-	*-
